resources/haticons/SVG/trash.svg

<!-- Generated by IcoMoon.io -->
<svg version="1.1" xmlns="http://www.w3.org/2000/svg" width="24" height="24" viewBox="0 0 24 24">
<title>trash</title>
<path d="M22.007 3.454h-4.993v-0.814c0-1.456-1.184-2.64-2.64-2.64h-4.747c-1.456 0-2.64 1.184-2.64 2.64v0.814h-4.993c-0.37 0-0.666 0.296-0.666 0.666s0.296 0.666 0.666 0.666h1.204v15.651c0 1.964 1.599 3.563 3.563 3.563h10.48c1.964 0 3.563-1.599 3.563-3.563v-15.651h1.204c0.37 0 0.666-0.296 0.666-0.666s-0.296-0.666-0.666-0.666zM8.319 2.64c0-0.72 0.587-1.308 1.308-1.308h4.747c0.72 0 1.308 0.587 1.308 1.308v0.814h-7.362zM19.47 20.438c0 1.229-1.002 2.23-2.23 2.23h-10.48c-1.229 0-2.23-1.002-2.23-2.23v-15.651h14.946v15.651zM12 20.28c0.37 0 0.666-0.296 0.666-0.666v-11.773c0-0.37-0.296-0.666-0.666-0.666s-0.666 0.296-0.666 0.666v11.768c0 0.37 0.296 0.671 0.666 0.671zM7.653 19.544c0.37 0 0.666-0.296 0.666-0.666v-10.308c0-0.37-0.296-0.666-0.666-0.666s-0.666 0.296-0.666 0.666v10.308c0 0.37 0.301 0.666 0.666 0.666zM16.347 19.544c0.37 0 0.666-0.296 0.666-0.666v-10.308c0-0.37-0.296-0.666-0.666-0.666s-0.666 0.296-0.666 0.666v10.308c0 0.37 0.296 0.666 0.666 0.666z"></path>
</svg>

<svg xmlns="http://www.w3.org/2000/svg" width="24" height="24"><path d="M22.007 3.454h-4.993V2.64A2.643 2.643 0 0 0 14.374 0H9.627a2.643 2.643 0 0 0-2.64 2.64v.814H1.994c-.37 0-.666.296-.666.666s.296.666.666.666h1.204v15.651A3.568 3.568 0 0 0 6.761 24h10.48a3.568 3.568 0 0 0 3.563-3.563V4.786h1.204c.37 0 .666-.296.666-.666s-.296-.666-.666-.666zM8.319 2.64c0-.72.587-1.308 1.308-1.308h4.747c.72 0 1.308.587 1.308 1.308v.814H8.32zM19.47 20.438a2.234 2.234 0 0 1-2.23 2.23H6.76a2.234 2.234 0 0 1-2.23-2.23V4.787h14.946v15.651zM12 20.28c.37 0 .666-.296.666-.666V7.841c0-.37-.296-.666-.666-.666s-.666.296-.666.666v11.768c0 .37.296.671.666.671zm-4.347-.736c.37 0 .666-.296.666-.666V8.57c0-.37-.296-.666-.666-.666s-.666.296-.666.666v10.308c0 .37.301.666.666.666zm8.694 0c.37 0 .666-.296.666-.666V8.57c0-.37-.296-.666-.666-.666s-.666.296-.666.666v10.308c0 .37.296.666.666.666z"/></svg>
